icon/lg/blueprint.svg

<?xml version="1.0" encoding="UTF-8"?>
<svg viewBox="0 0 256 298" version="1.1" xmlns="http://www.w3.org/2000/svg" xmlns:xlink="http://www.w3.org/1999/xlink" preserveAspectRatio="xMidYMid" height="1em" width="1em">
  <g>
    <polyline fill="#00B46F" points="192 112.384 256 150.326857 256 224.768 192 261.248 128 224.768 128 150.345143"/>
    <polyline fill="#2294D9" points="128 0 192 37.9428571 192 112.384 128 148.864 64 112.384 64 37.9611429"/>
    <polyline fill="#2294D9" points="192 37.9428571 256 75.8857143 256 150.336 192 186.816 128 150.336 128 75.8857143"/>
    <polyline fill="#F85551" points="64 37.9428571 128 75.8857143 128 150.336 64 186.816 0 150.336 0 75.8857143"/>
    <polyline fill="#F85551" points="64 112.384 128 150.326857 128 224.768 64 261.248 0 224.768 0 150.345143"/>
    <polyline fill="#00B46F" points="128 148.873143 192 186.816 192 261.257143 128 297.737143 64 261.257143 64 186.816"/>
    <path d="M192,37.9428571 L128,75.8857143 L64,37.9428571 L128,0 L192,37.9428571 Z M256,75.8857143 L192,113.846857 L128,75.904 L192,37.9611429 L256,75.904 L256,75.8857143 Z" fill="#30B2E9"/>
    <polyline fill="#00AB64" points="128 223.305143 128 148.882286 64 186.825143 64 261.248"/>
    <polyline fill="#00CE8E" points="192 186.816 128 223.296 64 186.816 128 148.873143"/>
    <polygon fill="#00C783" points="128 223.305143 64 186.825143 128 148.882286"/>
    <polygon fill="#2CAEE7" points="128 75.8857143 64 37.9428571 128 0"/>
    <polyline fill="#FB716C" points="128 75.8857143 64 113.846857 0 75.904 64 37.9611429"/>
    <polyline fill="#1F8ED6" points="256 150.336 192 186.816 128 148.873143 192 113.856"/>
    <polygon fill="#F64743" points="63.0125714 260.626286 0 224.146286 63.0125714 186.185143 63.0125714 260.626286"/>
    <polyline fill="#F96560" points="64 113.846857 64 37.9611429 128 75.904 128 148.864"/>
    <polyline fill="#B71D1D" points="128 148.873143 128 75.8857143 64 113.846857 64 186.806857"/>
    <polygon fill="#B21A1A" points="128 148.873143 64 113.856 128 75.8857143"/>
    <polygon fill-opacity="0.2" fill="#10161A" style="mix-blend-mode:soft-light" points="256 224.768 192 186.825143 256 150.345143 256 224.768"/>
    <path d="M192,261.257143 L192,186.816 L128,223.296 L128,297.746286 L192,261.266286 L192,261.257143 Z M256,224.777143 L256,150.336 L192,186.816 L192,261.257143 L256,224.777143 Z" fill="#007233"/>
    <polygon fill="#00682C" points="256 224.768 192 186.825143 256 150.345143 256 224.768"/>
    <polyline fill="#0759BA" points="256 150.336 256 75.8857143 192 113.846857 192 186.806857"/>
    <polygon fill="#0860BF" points="256 150.336 192 113.856 256 75.8857143"/>
    <path d="M0,75.8857143 L64,112.384 L128,75.904 L65.4628571,114.578286 L64,186.514286 C64,186.541714 64,186.514286 64,186.514286 L62.5371429,114.56 L0,75.8857143 Z" fill="#FEBCB7" opacity="0.78"/>
    <polyline fill="#4EDCF8" opacity="0.78" points="128 75.8857143 192 112.384 256 75.904 193.462857 114.578286 192 186.806857 190.537143 114.578286"/>
    <path d="M64,186.816 L128,221.851429 L192,186.816 L129.462857,224.027429 L128,297.691429 C128,297.718857 128,297.691429 128,297.691429 L126.537143,224.036571 L64,186.825143 L64,186.816 Z" fill="#00F3C9" opacity="0.78"/>
  </g>
</svg>

<svg width="256" height="298" xmlns="http://www.w3.org/2000/svg" preserveAspectRatio="xMidYMid"><path fill="#00B46F" d="m192 112.384 64 37.943v74.441l-64 36.48-64-36.48v-74.423"/><path fill="#2294D9" d="m128 0 64 37.943v74.441l-64 36.48-64-36.48V37.961"/><path fill="#2294D9" d="m192 37.943 64 37.943v74.45l-64 36.48-64-36.48v-74.45"/><path fill="#F85551" d="m64 37.943 64 37.943v74.45l-64 36.48-64-36.48v-74.45"/><path fill="#F85551" d="m64 112.384 64 37.943v74.441l-64 36.48-64-36.48v-74.423"/><path fill="#00B46F" d="m128 148.873 64 37.943v74.441l-64 36.48-64-36.48v-74.441"/><path d="m192 37.943-64 37.943-64-37.943L128 0l64 37.943Zm64 37.943-64 37.96-64-37.942 64-37.943 64 37.943v-.018Z" fill="#30B2E9"/><path fill="#00AB64" d="M128 223.305v-74.423l-64 37.943v74.423"/><path fill="#00CE8E" d="m192 186.816-64 36.48-64-36.48 64-37.943"/><path fill="#00C783" d="m128 223.305-64-36.48 64-37.943z"/><path fill="#2CAEE7" d="M128 75.886 64 37.943 128 0z"/><path fill="#FB716C" d="m128 75.886-64 37.96L0 75.905l64-37.943"/><path fill="#1F8ED6" d="m256 150.336-64 36.48-64-37.943 64-35.017"/><path fill="#F64743" d="M63.013 260.626 0 224.146l63.013-37.96v74.44z"/><path fill="#F96560" d="M64 113.847V37.96l64 37.943v72.96"/><path fill="#B71D1D" d="M128 148.873V75.886l-64 37.96v72.96"/><path fill="#B21A1A" d="m128 148.873-64-35.017 64-37.97z"/><path fill-opacity=".2" fill="#10161A" style="mix-blend-mode:soft-light" d="m256 224.768-64-37.943 64-36.48v74.423z"/><path d="M192 261.257v-74.441l-64 36.48v74.45l64-36.48v-.009Zm64-36.48v-74.441l-64 36.48v74.441l64-36.48Z" fill="#007233"/><path fill="#00682C" d="m256 224.768-64-37.943 64-36.48v74.423z"/><path fill="#0759BA" d="M256 150.336v-74.45l-64 37.96v72.96"/><path fill="#0860BF" d="m256 150.336-64-36.48 64-37.97z"/><path d="m0 75.886 64 36.498 64-36.48-62.537 38.674L64 186.514c0 .028 0 0 0 0l-1.463-71.954L0 75.886Z" fill="#FEBCB7" opacity=".78"/><path fill="#4EDCF8" opacity=".78" d="m128 75.886 64 36.498 64-36.48-62.537 38.674L192 186.807l-1.463-72.229"/><path d="m64 186.816 64 35.035 64-35.035-62.537 37.211L128 297.691c0 .028 0 0 0 0l-1.463-73.654L64 186.825v-.009Z" fill="#00F3C9" opacity=".78"/></svg>
